;FLAVOR:UltiGCode
;TIME:22875
;MATERIAL:44387
;MATERIAL2:0
;NOZZLE_DIAMETER:0.4
;MINX:74.795
;MINY:23.295
;MINZ:0.3
;MAXX:148.205
;MAXY:199.705
;MAXZ:42
;TARGET_MACHINE.NAME:Ultimaker 2
;Generated with Cura_SteamEngine 5.8.1
M82 ;absolute extrusion mode
G0 F3000 Y50 ;avoid prime blob
G92 E0
G92 E0
G10
;LAYER_COUNT:279
;LAYER:0
M107
G0 F7200 X75.685 Y27.107 Z0.3
;TYPE:SKIRT
G11
G1 F900 X75.885 Y26.791 E0.04488
G1 X78.452 Y24.298 E0.47428
G1 X81.524 Y23.295 E0.86207
G1 X141.775 Y23.295 E8.09219
G1 X144.393 Y24.185 E8.42401
G1 X144.709 Y24.385 E8.46888
G1 X147.202 Y26.952 E8.89828
G1 X148.205 Y30.024 E9.28608
G1 X148.205 Y192.825 E28.8222
G1 X147.569 Y195.255 E29.12362
G1 X145.524 Y198.087 E29.5428
G1 X141.946 Y199.705 E30.01402
G1 X81.616 Y199.705 E37.25362
G1 X79.688 Y199.285 E37.4904
G1 X77.868 Y198.175 E37.74622
G1 X75.786 Y196.029 E38.10502
G1 X74.795 Y192.972 E38.49065
G1 X74.795 Y29.725 E58.08029
G1 X75.685 Y27.107 E58.41211
G0 F7200 X76.064 Y27.236
G1 F900 X76.164 Y27.078 E58.43455
G1 X78.665 Y24.649 E58.85292
G1 X81.587 Y23.695 E59.22177
G1 X141.708 Y23.695 E66.43629
G1 X144.264 Y24.564 E66.76025
G1 X144.422 Y24.664 E66.78269
G1 X146.851 Y27.165 E67.20106
G1 X147.805 Y30.087 E67.56992
G1 X147.805 Y192.774 E87.09236
G1 X147.201 Y195.082 E87.37864
G1 X145.262 Y197.767 E87.77607
G1 X141.861 Y199.305 E88.22399
G1 X81.66 Y199.305 E95.44811
G1 X79.837 Y198.908 E95.67199
G1 X78.122 Y197.862 E95.91305
G1 X76.138 Y195.817 E96.25496
G1 X75.195 Y192.908 E96.62193
G1 X75.195 Y29.792 E116.19585
G1 X76.064 Y27.236 E116.51981
G0 F7200 X76.443 Y27.365
G1 F900 X78.878 Y25 E116.92714
G1 X81.65 Y24.095 E117.27706
G1 X141.641 Y24.095 E124.47598
G1 X144.135 Y24.943 E124.79209
G1 X146.5 Y27.378 E125.19943
G1 X147.405 Y30.15 E125.54935
G1 X147.405 Y192.723 E145.05811
G1 X146.833 Y194.909 E145.32926
G1 X145 Y197.447 E145.70494
G1 X141.776 Y198.905 E146.12955
G1 X81.704 Y198.905 E153.33819
G1 X79.986 Y198.531 E153.54917
G1 X78.376 Y197.549 E153.77548
G1 X76.49 Y195.605 E154.1005
G1 X75.595 Y192.844 E154.44879
G1 X75.595 Y29.859 E174.00699
G1 X76.443 Y27.365 E174.3231
G0 F7200 X76.791 Y27.585
G1 F900 X79.091 Y25.351 E174.70786
G1 X81.713 Y24.495 E175.03885
G1 X141.574 Y24.495 E182.22217
G1 X143.915 Y25.291 E182.51888
G1 X146.149 Y27.591 E182.90364
G1 X147.005 Y30.213 E183.23463
G1 X147.005 Y192.672 E202.72971
G1 X146.465 Y194.736 E202.98572
G1 X144.738 Y197.127 E203.33966
G1 X141.691 Y198.505 E203.74095
G1 X81.748 Y198.505 E210.93411
G1 X80.135 Y198.154 E211.1322
G1 X78.63 Y197.236 E211.34375
G1 X76.842 Y195.393 E211.65189
G1 X75.995 Y192.78 E211.98151
G1 X75.995 Y29.926 E231.52399
G1 X76.791 Y27.585 E231.8207
G0 F7200 X77.139 Y27.805
G1 F900 X79.304 Y25.702 E232.18289
G1 X81.776 Y24.895 E232.49494
G1 X141.507 Y24.895 E239.66266
G1 X143.695 Y25.639 E239.93998
G1 X145.798 Y27.804 E240.30217
G1 X146.605 Y30.276 E240.61422
G1 X146.605 Y192.621 E260.09562
G1 X146.097 Y194.563 E260.3365
G1 X144.476 Y196.807 E260.66869
G1 X141.603 Y198.105 E261.047
G1 X81.792 Y198.105 E268.22432
G1 X80.284 Y197.777 E268.40952
G1 X78.884 Y196.923 E268.60631
G1 X77.194 Y195.181 E268.89755
G1 X76.395 Y192.716 E269.2085
G1 X76.395 Y29.993 E288.73526
G1 X77.139 Y27.805 E289.01259
G0 F7200 X77.487 Y28.025
G1 F900 X79.517 Y26.053 E289.35221
G1 X81.839 Y25.295 E289.64532
G1 X141.44 Y25.295 E296.79744
G1 X143.475 Y25.987 E297.05537
G1 X145.447 Y28.017 E297.39499
G1 X146.205 Y30.339 E297.6881
G1 X146.205 Y192.57 E317.15582
G1 X145.729 Y194.39 E317.38156
G1 X144.216 Y196.486 E317.69177
G1 X141.515 Y197.705 E318.04737
G1 X81.836 Y197.705 E325.20885
G1 X80.433 Y197.4 E325.38114
G1 X79.138 Y196.61 E325.56317
G1 X77.546 Y194.969 E325.83753
G1 X76.795 Y192.652 E326.12981
G1 X76.795 Y30.06 E345.64085
G1 X77.487 Y28.025 E345.89879
G0 F7200 X77.835 Y28.245
G1 F900 X79.73 Y26.404 E346.21583
G1 X81.902 Y25.695 E346.49
G1 X141.373 Y25.695 E353.62652
G1 X143.255 Y26.335 E353.86507
G1 X145.096 Y28.23 E354.18211
G1 X145.805 Y30.402 E354.45628
G1 X145.805 Y192.519 E373.91032
G1 X145.361 Y194.217 E374.12093
G1 X143.955 Y196.167 E374.40942
G1 X141.429 Y197.305 E374.74188
G1 X81.88 Y197.305 E381.88776
G1 X80.582 Y197.023 E382.04715
G1 X79.392 Y196.297 E382.21443
G1 X77.898 Y194.757 E382.4719
G1 X77.195 Y192.588 E382.74551
G1 X77.195 Y30.127 E402.24083
G1 X77.835 Y28.245 E402.47937
G0 F7200 X78.183 Y28.465
G1 F900 X79.943 Y26.755 E402.77384
G1 X81.965 Y26.095 E403.02908
G1 X141.306 Y26.095 E410.15
G1 X143.035 Y26.683 E410.36915
G1 X144.745 Y28.443 E410.66362
G1 X145.405 Y30.465 E410.91886
G1 X145.405 Y192.468 E430.35922
G1 X144.993 Y194.042 E430.55446
G1 X143.694 Y195.848 E430.82142
G1 X141.343 Y196.905 E431.13074
G1 X81.924 Y196.905 E438.26102
G1 X80.731 Y196.646 E438.40752
G1 X79.646 Y195.984 E438.56004
G1 X78.25 Y194.545 E438.80062
G1 X77.595 Y192.524 E439.05556
G1 X77.595 Y30.194 E458.53516
G1 X78.183 Y28.465 E458.75431
G0 F7200 X78.531 Y28.685
G1 F900 X80.156 Y27.106 E459.02621
G1 X82.028 Y26.495 E459.26251
G1 X141.239 Y26.495 E466.36783
G1 X142.815 Y27.031 E466.56759
G1 X144.394 Y28.656 E466.83949
G1 X145.005 Y30.528 E467.07579
G1 X145.005 Y192.417 E486.50247
G1 X144.625 Y193.869 E486.68258
G1 X143.433 Y195.528 E486.92772
G1 X141.257 Y196.505 E487.21395
G1 X81.968 Y196.505 E494.32863
G1 X80.88 Y196.269 E494.46223
G1 X79.9 Y195.671 E494.59999
G1 X78.602 Y194.333 E494.82369
G1 X77.995 Y192.46 E495.05996
G1 X77.995 Y30.261 E514.52384
G1 X78.531 Y28.685 E514.7236
G0 F7200 X78.879 Y28.905
G1 F900 X80.369 Y27.457 E514.97292
G1 X82.091 Y26.895 E515.19029
G1 X141.172 Y26.895 E522.28001
G1 X142.595 Y27.379 E522.46037
G1 X144.043 Y28.869 E522.7097
G1 X144.605 Y30.591 E522.92706
G1 X144.605 Y192.366 E542.34006
G1 X144.257 Y193.696 E542.50503
G1 X143.171 Y195.208 E542.72843
G1 X141.171 Y196.105 E542.99146
G1 X82.012 Y196.105 E550.09054
G1 X81.031 Y195.892 E550.211
G1 X80.152 Y195.356 E550.33455
G1 X78.953 Y194.12 E550.54119
G1 X78.395 Y192.399 E550.75829
G1 X78.395 Y30.328 E570.20681
G1 X78.879 Y28.905 E570.38718
G0 F7200 X79.227 Y29.125
G1 F900 X80.582 Y27.808 E570.61393
G1 X82.154 Y27.295 E570.81236
G1 X141.105 Y27.295 E577.88648
G1 X142.375 Y27.727 E578.04745
G1 X143.692 Y29.082 E578.2742
G1 X144.205 Y30.654 E578.47263
G1 X144.205 Y192.315 E597.87195
G1 X143.889 Y193.523 E598.02179
G1 X142.909 Y194.888 E598.22344
G1 X141.085 Y195.705 E598.46327
G1 X82.056 Y195.705 E605.54675
G1 X81.182 Y195.515 E605.65408
G1 X80.404 Y195.041 E605.7634
G1 X79.304 Y193.907 E605.95298
G1 X78.795 Y192.338 E606.15092
G1 X78.795 Y30.395 E625.58408
G1 X79.227 Y29.125 E625.74506
G0 F7200 X79.575 Y29.345
G1 F900 X80.795 Y28.159 E625.94924
G1 X82.217 Y27.695 E626.12873
G1 X141.038 Y27.695 E633.18725
G1 X142.155 Y28.075 E633.32883
G1 X143.341 Y29.295 E633.53301
G1 X143.805 Y30.717 E633.71251
G1 X143.805 Y192.264 E653.09815
G1 X143.521 Y193.35 E653.23285
G1 X142.647 Y194.568 E653.41274
G1 X141 Y195.305 E653.62927
G1 X82.1 Y195.305 E660.69727
G1 X81.333 Y195.138 E660.79147
G1 X80.653 Y194.724 E660.887
G1 X79.655 Y193.695 E661.05902
G1 X79.195 Y192.277 E661.23791
G1 X79.195 Y30.462 E680.65571
G1 X79.575 Y29.345 E680.79729
G0 F7200 X79.923 Y29.565
G1 F900 X81.008 Y28.51 E680.97889
G1 X82.28 Y28.095 E681.13945
G1 X140.971 Y28.095 E688.18237
G1 X141.935 Y28.423 E688.30456
G1 X142.99 Y29.508 E688.48617
G1 X143.405 Y30.78 E688.64672
G1 X143.405 Y192.213 E708.01868
G1 X143.153 Y193.177 E708.13825
G1 X142.385 Y194.248 E708.2964
G1 X140.915 Y194.905 E708.48962
G1 X82.144 Y194.905 E715.54214
G1 X81.484 Y194.761 E715.6232
G1 X80.902 Y194.407 E715.70494
G1 X80.006 Y193.483 E715.8594
G1 X79.595 Y192.216 E716.01923
G1 X79.595 Y30.529 E735.42167
G1 X79.923 Y29.565 E735.54387
G0 F7200 X80.271 Y29.785
G1 F900 X81.221 Y28.861 E735.7029
G1 X82.343 Y28.495 E735.84452
G1 X140.904 Y28.495 E742.87184
G1 X141.715 Y28.771 E742.97464
G1 X142.639 Y29.721 E743.13367
G1 X143.005 Y30.843 E743.27529
G1 X143.005 Y192.162 E762.63357
G1 X142.785 Y193.004 E762.738
G1 X142.124 Y193.928 E762.87433
G1 X140.83 Y194.505 E763.04435
G1 X82.188 Y194.505 E770.08139
G1 X81.635 Y194.384 E770.14932
G1 X81.151 Y194.09 E770.21728
G1 X80.357 Y193.271 E770.35416
G1 X79.995 Y192.155 E770.49495
G1 X79.995 Y30.596 E789.88203
G1 X80.271 Y29.785 E789.98483
G0 F7200 X80.619 Y30.005
G1 F900 X81.434 Y29.212 E790.12129
G1 X82.406 Y28.895 E790.24398
G1 X140.837 Y28.895 E797.2557
G1 X141.495 Y29.119 E797.33911
G1 X142.288 Y29.934 E797.47556
G1 X142.605 Y30.906 E797.59825
G1 X142.605 Y192.111 E816.94285
G1 X142.417 Y192.832 E817.03226
G1 X141.862 Y193.608 E817.14675
G1 X140.744 Y194.105 E817.29356
G1 X82.188 Y194.105 E824.32028
G1 X81.728 Y193.995 E824.37704
G1 X81.438 Y193.812 E824.41819
G1 X80.709 Y193.06 E824.54387
G1 X80.395 Y192.093 E824.66588
G1 X80.395 Y30.663 E844.03748
G1 X80.619 Y30.005 E844.12089
G0 F7200 X80.967 Y30.225
G1 F900 X81.647 Y29.563 E844.23477
G1 X82.469 Y29.295 E844.33852
G1 X140.77 Y29.295 E851.33464
G1 X141.275 Y29.467 E851.39866
G1 X141.937 Y30.147 E851.51254
G1 X142.205 Y30.969 E851.61629
G1 X142.205 Y192.06 E870.94721
G1 X142.049 Y192.659 E871.02149
G1 X141.601 Y193.288 E871.11416
G1 X140.658 Y193.705 E871.23789
G1 X82.228 Y193.705 E878.24949
G1 X81.924 Y193.646 E878.28665
G1 X81.725 Y193.534 E878.31405
G1 X81.061 Y192.849 E878.42853
G1 X80.795 Y192.031 E878.53175
G1 X80.795 Y30.73 E897.88787
G1 X80.967 Y30.225 E897.95189
G0 F7200 X81.246 Y30.512
G1 F900 X81.86 Y29.914 E898.05474
G1 X82.532 Y29.695 E898.13955
G1 X140.77 Y29.695 E905.12811
G1 X140.988 Y29.746 E905.15498
G1 X141.586 Y30.36 E905.25783
G1 X141.805 Y31.032 E905.34264
G1 X141.805 Y192.06 E924.666
G1 X141.722 Y192.428 E924.71127
G1 X141.34 Y192.968 E924.79065
G1 X140.574 Y193.305 E924.89107
G1 X82.228 Y193.305 E931.89259
G1 X82.012 Y193.256 E931.91917
G1 X81.413 Y192.638 E932.02245
G1 X81.195 Y191.968 E932.107
G1 X81.195 Y30.73 E951.45556
G1 X81.246 Y30.512 E951.48242
G0 F7200 X81.595 Y30.73
G1 F900 X82.073 Y30.265 E951.56245
G1 X82.595 Y30.095 E951.62833
G1 X140.77 Y30.095 E958.60933
G1 X141.235 Y30.573 E958.68935
G1 X141.405 Y31.095 E958.75523
G1 X141.405 Y192.06 E978.07103
G1 X141.35 Y192.262 E978.09615
G1 X141.078 Y192.648 E978.15281
G1 X140.489 Y192.905 E978.22993
G1 X82.228 Y192.905 E985.22125
G1 X81.765 Y192.427 E985.30111
G1 X81.595 Y191.905 E985.36698
G1 X81.595 Y30.73 E1004.70798
G0 F7200 X82.395 Y30.996
G1 F900 X82.595 Y30.895 E1004.73487
G1 X140.504 Y30.895 E1011.68395
G1 X140.605 Y31.095 E1011.71084
G1 X140.605 Y192.004 E1031.01992
G1 X140.405 Y192.105 E1031.04681
G1 X82.496 Y192.105 E1037.99589
G1 X82.395 Y191.905 E1038.02277
G1 X82.395 Y30.996 E1057.33185
G0 F7200 X82.215 Y30.639
G1 F900 X82.595 Y30.495 E1057.38062
G1 X140.636 Y30.495 E1064.34554
G1 X140.861 Y30.715 E1064.3833
G1 X141.005 Y31.095 E1064.43206
G1 X141.005 Y192.06 E1083.74786
G1 X140.855 Y192.316 E1083.78347
G1 X140.405 Y192.505 E1083.84204
G1 X82.363 Y192.505 E1090.80708
G1 X82.139 Y192.285 E1090.84475
G1 X81.995 Y191.905 E1090.89352
G1 X81.995 Y30.864 E1110.21844
G1 X82.215 Y30.639 E1110.2562
G10
;MESH:controllerbackplate.3mf
G0 F7200 X85.878 Y33.999
G0 X91.179 Y36.88
;TYPE:WALL-OUTER
G11
G1 F900 X90.819 Y37.558 E1110.35753
G1 X90.458 Y37.99 E1110.43184
G1 X89.763 Y38.491 E1110.54493
G1 X88.877 Y38.769 E1110.66751
G1 X88.394 Y38.79 E1110.73132
G1 X87.739 Y38.687 E1110.81885
G1 X87.235 Y38.491 E1110.89023
G1 X86.748 Y38.176 E1110.96679
G1 X86.351 Y37.786 E1111.04025
G1 X86.044 Y37.331 E1111.1127
G1 X85.822 Y36.799 E1111.18879
G1 X85.702 Y36.014 E1111.29362
G1 X85.793 Y35.288 E1111.3902
G1 X86.174 Y34.444 E1111.51243
G1 X86.763 Y33.803 E1111.62734
G1 X87.62 Y33.342 E1111.75579
G1 X88.572 Y33.202 E1111.88281
G1 X89.264 Y33.306 E1111.97518
G1 X89.908 Y33.586 E1112.06787
G1 X90.248 Y33.82 E1112.12235
G1 X90.874 Y34.463 E1112.24081
G1 X91.178 Y35.21 E1112.34727
G1 X91.294 Y35.979 E1112.44992
G1 X91.179 Y36.88 E1112.56982
G0 F7200 X91.086 Y37.056
G10
G0 X91.35 Y37.198
G0 X91.8 Y35.976
G0 X131.977 Y38.121
G0 X135.387 Y38.647
G11
G1 F900 X134.854 Y38.772 E1112.64209
G1 X133.888 Y38.727 E1112.76974
G1 X133.365 Y38.552 E1112.84253
G1 X132.775 Y38.196 E1112.93349
G1 X132.356 Y37.794 E1113.01014
G1 X132.056 Y37.356 E1113.08022
G1 X131.83 Y36.833 E1113.15542
G1 X131.704 Y36.017 E1113.26441
G1 X131.793 Y35.29 E1113.36109
G1 X132.168 Y34.454 E1113.48204
G1 X132.533 Y34.012 E1113.5577
G1 X133.087 Y33.588 E1113.64979
G1 X133.649 Y33.338 E1113.73098
G1 X134.544 Y33.204 E1113.85044
G1 X135.217 Y33.297 E1113.94012
G1 X135.664 Y33.46 E1114.00293
G1 X136.25 Y33.813 E1114.09323
G1 X136.875 Y34.465 E1114.21245
G1 X137.178 Y35.21 E1114.31861
G1 X137.294 Y35.979 E1114.42127
G1 X137.179 Y36.894 E1114.543
G1 X136.802 Y37.581 E1114.64644
G1 X136.439 Y38.007 E1114.72032
G1 X135.891 Y38.423 E1114.81113
G1 X135.387 Y38.647 E1114.88394
G0 F7200 X135.193 Y38.692
G10
G0 X135.261 Y38.987
G0 X134.541 Y183.696
G0 X135.387 Y189.647
G11
G1 F900 X134.871 Y189.77 E1114.95396
G1 X133.898 Y189.731 E1115.0825
G1 X133.34 Y189.54 E1115.16035
G1 X132.757 Y189.181 E1115.25072
G1 X132.377 Y188.817 E1115.32018
G1 X132.063 Y188.366 E1115.39272
G1 X131.822 Y187.799 E1115.47405
G1 X131.702 Y187.014 E1115.57887
G1 X131.793 Y186.296 E1115.6744
G1 X132.163 Y185.466 E1115.79436
G1 X132.55 Y184.994 E1115.87493
G1 X133.104 Y184.576 E1115.96654
G1 X133.617 Y184.347 E1116.04069
G1 X134.54 Y184.204 E1116.16398
G1 X135.257 Y184.308 E1116.25962
G1 X135.664 Y184.46 E1116.31696
G1 X136.25 Y184.813 E1116.40727
G1 X136.875 Y185.464 E1116.52639
G1 X137.178 Y186.21 E1116.63268
G1 X137.294 Y186.979 E1116.73533
G1 X137.179 Y187.894 E1116.85706
G1 X136.802 Y188.581 E1116.9605
G1 X136.439 Y189.007 E1117.03438
G1 X135.891 Y189.423 E1117.1252
G1 X135.387 Y189.647 E1117.198
G0 F7200 X135.193 Y189.693
G10
G0 X135.261 Y189.987
G0 X136.807 Y189.356
G0 X136.807 Y191.184
G0 X140.204 Y191.704
G11
G1 F900 X140.204 Y31.292 E1138.37239
G1 X82.793 Y31.293 E1145.95064
G1 X82.792 Y191.704 E1167.12489
G1 X140.204 Y191.704 E1174.70327
G0 F7200 X140.204 Y191.504
G10
G0 X139.905 Y191.504
G0 X88.38 Y191.184
G0 X88.378 Y190.296
G0 X88.424 Y189.792
G11
G1 F900 X87.739 Y189.687 E1174.79475
G1 X87.235 Y189.491 E1174.86613
G1 X86.748 Y189.176 E1174.94269
G1 X86.351 Y188.786 E1175.01615
G1 X86.044 Y188.331 E1175.0886
G1 X85.822 Y187.799 E1175.1647
G1 X85.702 Y187.014 E1175.26952
G1 X85.793 Y186.288 E1175.3661
G1 X86.174 Y185.444 E1175.48834
G1 X86.763 Y184.803 E1175.60324
G1 X87.618 Y184.343 E1175.7314
G1 X88.575 Y184.204 E1175.85905
G1 X89.257 Y184.305 E1175.95006
G1 X89.888 Y184.574 E1176.0406
G1 X90.232 Y184.805 E1176.0953
G1 X90.877 Y185.474 E1176.21796
G1 X91.173 Y186.184 E1176.3195
G1 X91.292 Y186.975 E1176.42509
G1 X91.179 Y187.894 E1176.54731
G1 X90.802 Y188.581 E1176.65075
G1 X90.437 Y189.007 E1176.7248
G1 X89.756 Y189.497 E1176.83554
G1 X88.875 Y189.77 E1176.95729
G1 X88.424 Y189.792 E1177.01689
G0 F7200 X88.227 Y189.762
G0 X88.387 Y190.194
;TYPE:WALL-INNER
G1 F900 X87.656 Y190.084 E1177.10117
G1 X87.034 Y189.842 E1177.17725
G1 X86.511 Y189.504 E1177.24824
G1 X86.057 Y189.064 E1177.32032
G1 X85.699 Y188.542 E1177.39247
G1 X85.437 Y187.93 E1177.46837
G1 X85.301 Y187.038 E1177.57123
G1 X85.402 Y186.181 E1177.6696
G1 X85.837 Y185.221 E1177.78976
G1 X86.516 Y184.482 E1177.90416
G1 X87.49 Y183.958 E1178.03025
G1 X88.551 Y183.8 E1178.15254
G1 X89.384 Y183.921 E1178.24849
G1 X90.104 Y184.236 E1178.33809
G1 X90.522 Y184.528 E1178.39621
G1 X91.222 Y185.254 E1178.51118
G1 X91.557 Y186.073 E1178.61206
G1 X91.696 Y186.993 E1178.71813
G1 X91.566 Y188.018 E1178.83591
G1 X91.147 Y188.791 E1178.93615
G1 X90.733 Y189.287 E1179.0098
G1 X89.937 Y189.86 E1179.12161
G1 X88.944 Y190.164 E1179.24
G1 X88.387 Y190.194 E1179.30359
G10
G0 F7200 X90.803 Y189.361
G0 X131.979 Y189.129
G0 X135.535 Y190.023
G11
G1 F900 X134.891 Y190.176 E1179.37905
G1 X133.825 Y190.128 E1179.5007
G1 X133.192 Y189.918 E1179.57673
G1 X132.532 Y189.518 E1179.6647
G1 X132.058 Y189.066 E1179.73937
G1 X131.699 Y188.542 E1179.81178
G1 X131.438 Y187.935 E1179.88711
G1 X131.304 Y187.015 E1179.99309
G1 X131.408 Y186.169 E1180.09026
G1 X131.828 Y185.236 E1180.2069
G1 X132.259 Y184.719 E1180.28364
G1 X132.903 Y184.226 E1180.3761
